packages/kaspersky-hexa-ui-icons/src/iconsSVGs/16x12/FlagVg.svg

<svg width="16" height="12" viewBox="0 0 16 12" fill="none" xmlns="http://www.w3.org/2000/svg">
<g clip-path="url(#clip0_41818_3994)">
<rect width="16" height="12" rx="2" fill="white"/>
<mask id="mask0_41818_3994" style="mask-type:luminance" maskUnits="userSpaceOnUse" x="0" y="0" width="16" height="12">
<rect width="16" height="12" rx="2" fill="white"/>
</mask>
<g mask="url(#mask0_41818_3994)">
<rect width="16" height="12" fill="#07319C"/>
<rect width="6.85714" height="5.6" fill="#042C90"/>
<mask id="mask1_41818_3994" style="mask-type:alpha" maskUnits="userSpaceOnUse" x="0" y="0" width="7" height="6">
<rect width="6.85714" height="5.6" fill="#042C90"/>
</mask>
<g mask="url(#mask1_41818_3994)">
<mask id="path-6-outside-1_41818_3994" maskUnits="userSpaceOnUse" x="-2.14685" y="-1.08125" width="10" height="8" fill="black">
<rect fill="white" x="-2.14685" y="-1.08125" width="10" height="8"/>
<path fill-rule="evenodd" clip-rule="evenodd" d="M2.64218 2.42888L-0.146851 -0.0812531H0.251583L3.04062 2.01052H3.83748L7.02495 -0.0812531V0.170435C7.02495 0.275354 6.97555 0.37415 6.89162 0.437102L4.23592 2.42888V3.26559L6.76238 5.53941C6.85472 5.62251 6.79593 5.77572 6.6717 5.77572C6.64237 5.77572 6.61383 5.7662 6.59037 5.74861L3.83748 3.68394H3.04062L-0.146851 5.77572V5.35736L2.64218 3.26559V2.42888Z"/>
</mask>
<path fill-rule="evenodd" clip-rule="evenodd" d="M2.64218 2.42888L-0.146851 -0.0812531H0.251583L3.04062 2.01052H3.83748L7.02495 -0.0812531V0.170435C7.02495 0.275354 6.97555 0.37415 6.89162 0.437102L4.23592 2.42888V3.26559L6.76238 5.53941C6.85472 5.62251 6.79593 5.77572 6.6717 5.77572C6.64237 5.77572 6.61383 5.7662 6.59037 5.74861L3.83748 3.68394H3.04062L-0.146851 5.77572V5.35736L2.64218 3.26559V2.42888Z" fill="#FF2E3B"/>
<path fill-rule="evenodd" clip-rule="evenodd" d="M2.64218 2.42888L-0.146851 -0.0812531H0.251583L3.04062 2.01052H3.83748L7.02495 -0.0812531V0.170435C7.02495 0.275354 6.97555 0.37415 6.89162 0.437102L4.23592 2.42888V3.26559L6.76238 5.53941C6.85472 5.62251 6.79593 5.77572 6.6717 5.77572C6.64237 5.77572 6.61383 5.7662 6.59037 5.74861L3.83748 3.68394H3.04062L-0.146851 5.77572V5.35736L2.64218 3.26559V2.42888Z" stroke="white" stroke-width="0.8" mask="url(#path-6-outside-1_41818_3994)"/>
<path fill-rule="evenodd" clip-rule="evenodd" d="M-1.04602 2.04548V3.65063H2.67512V5.8C2.67512 5.96569 2.80943 6.1 2.97512 6.1H3.90384C4.06952 6.1 4.20384 5.96569 4.20384 5.8V3.65063H7.05761C7.22329 3.65063 7.3576 3.51631 7.3576 3.35063V2.34548C7.3576 2.17979 7.22329 2.04548 7.05761 2.04548H4.20384V-1.00685H2.67512V2.04548H-1.04602Z" fill="white"/>
<path fill-rule="evenodd" clip-rule="evenodd" d="M-0.146851 2.42888H3.04062V2.01052V-0.0812531H3.83748V2.01052V2.42888H7.02495V3.26559H3.83748V3.68394V5.77572H3.04062V3.68394V3.26559H-0.146851V2.42888Z" fill="url(#paint0_linear_41818_3994)"/>
</g>
</g>
<g clip-path="url(#clip1_41818_3994)">
<path fill-rule="evenodd" clip-rule="evenodd" d="M9.90479 6C9.90479 5.53231 9.90479 5.00386 9.90479 4.53305C9.90479 3.79667 10.5017 3.2 11.2381 3.2H12.381C13.1174 3.2 13.7143 3.79667 13.7143 4.53305C13.7143 5.00386 13.7143 5.53231 13.7143 6C13.7143 8 11.8095 8.8 11.8095 8.8C11.8095 8.8 9.90479 8 9.90479 6Z" fill="#008339"/>
<mask id="mask2_41818_3994" style="mask-type:luminance" maskUnits="userSpaceOnUse" x="9" y="3" width="5" height="6">
<path fill-rule="evenodd" clip-rule="evenodd" d="M9.90479 6C9.90479 5.53231 9.90479 5.00386 9.90479 4.53305C9.90479 3.79667 10.5017 3.2 11.2381 3.2H12.381C13.1174 3.2 13.7143 3.79667 13.7143 4.53305C13.7143 5.00386 13.7143 5.53231 13.7143 6C13.7143 8 11.8095 8.8 11.8095 8.8C11.8095 8.8 9.90479 8 9.90479 6Z" fill="white"/>
</mask>
<g mask="url(#mask2_41818_3994)">
<path d="M11.0477 6.39954C11.2581 6.39956 11.4286 6.57906 11.4286 6.79993C11.4286 7.02082 11.2581 7.20029 11.0477 7.20032C10.8373 7.20032 10.6669 7.02084 10.6669 6.79993C10.6669 6.57904 10.8374 6.39954 11.0477 6.39954ZM12.5712 6.39954C12.7815 6.39954 12.952 6.57904 12.952 6.79993C12.952 7.02084 12.7816 7.20032 12.5712 7.20032C12.3609 7.20013 12.1903 7.02073 12.1903 6.79993C12.1903 6.57916 12.3609 6.39972 12.5712 6.39954ZM11.0477 5.59973C11.2581 5.59976 11.4286 5.77922 11.4286 6.00012C11.4285 6.22096 11.2581 6.39951 11.0477 6.39954C10.8374 6.39954 10.6669 6.22098 10.6669 6.00012C10.6669 5.77921 10.8373 5.59973 11.0477 5.59973ZM12.5712 5.59973C12.7816 5.59973 12.952 5.77921 12.952 6.00012C12.952 6.22098 12.7815 6.39954 12.5712 6.39954C12.361 6.39935 12.1904 6.22086 12.1903 6.00012C12.1903 5.77932 12.3609 5.59992 12.5712 5.59973ZM11.0477 4.79993C11.2581 4.79995 11.4286 4.97942 11.4286 5.20032C11.4284 5.42107 11.258 5.59971 11.0477 5.59973C10.8374 5.59973 10.667 5.42108 10.6669 5.20032C10.6669 4.9794 10.8373 4.79993 11.0477 4.79993ZM12.5712 4.79993C12.7816 4.79993 12.952 4.9794 12.952 5.20032C12.9519 5.42108 12.7815 5.59973 12.5712 5.59973C12.361 5.59955 12.1905 5.42097 12.1903 5.20032C12.1903 4.97952 12.3609 4.80011 12.5712 4.79993ZM11.0477 4.00012C11.258 4.00015 11.4284 4.17885 11.4286 4.39954C11.4286 4.62043 11.2581 4.7999 11.0477 4.79993C10.8373 4.79993 10.6669 4.62045 10.6669 4.39954C10.6671 4.17883 10.8375 4.00012 11.0477 4.00012ZM12.5712 4.00012C12.7814 4.00012 12.9518 4.17883 12.952 4.39954C12.952 4.62045 12.7816 4.79993 12.5712 4.79993C12.3609 4.79974 12.1903 4.62034 12.1903 4.39954C12.1905 4.17895 12.3611 4.00031 12.5712 4.00012Z" fill="#FFD033"/>
<ellipse cx="11.8095" cy="5.59999" rx="0.380952" ry="1.2" fill="white"/>
</g>
</g>
<path d="M9.5238 8.00001C9.5238 8.76292 10.5645 9.20001 11.8095 9.20001C13.0545 9.20001 14.0952 8.76292 14.0952 8.00001C14.0952 7.77909 13.9247 7.60001 13.7143 7.60001C13.5039 7.60001 13.3333 7.77909 13.3333 8.00001C13.3333 8.00765 13.241 8.09935 13.0149 8.1943C12.708 8.3232 12.2756 8.40001 11.8095 8.40001C11.3434 8.40001 10.911 8.3232 10.6041 8.1943C10.378 8.09935 10.2857 8.00765 10.2857 8.00001C10.2857 7.77909 10.1152 7.60001 9.90476 7.60001C9.69436 7.60001 9.5238 7.77909 9.5238 8.00001Z" fill="#FFD033"/>
</g>
<defs>
<linearGradient id="paint0_linear_41818_3994" x1="-0.146851" y1="-0.0812531" x2="-0.146851" y2="5.77572" gradientUnits="userSpaceOnUse">
<stop stop-color="#FF2E3B"/>
<stop offset="1" stop-color="#FC0D1B"/>
</linearGradient>
<clipPath id="clip0_41818_3994">
<rect width="16" height="12" fill="white"/>
</clipPath>
<clipPath id="clip1_41818_3994">
<rect width="4" height="6" fill="white" transform="translate(9.90479 3.2)"/>
</clipPath>
</defs>
</svg>

<svg xmlns="http://www.w3.org/2000/svg" width="16" height="12" fill="none" viewBox="0 0 16 12"><g clip-path="url(#a)"><rect width="16" height="12" fill="#fff" rx="2"/><mask id="b" width="16" height="12" x="0" y="0" maskUnits="userSpaceOnUse" style="mask-type:luminance"><rect width="16" height="12" fill="#fff" rx="2"/></mask><g mask="url(#b)"><path fill="#07319c" d="M0 0h16v12H0z"/><path fill="#042c90" d="M0 0h6.8571v5.6H0z"/><mask id="c" width="7" height="6" x="0" y="0" maskUnits="userSpaceOnUse" style="mask-type:alpha"><path fill="#042c90" d="M0 0h6.8571v5.6H0z"/></mask><g mask="url(#c)"><mask id="d" width="10" height="8" x="-2" y="-1" fill="#000" maskUnits="userSpaceOnUse"><path fill="#fff" d="M-2.1469-1.0813h10v8h-10z"/><path fill-rule="evenodd" d="M2.6422 2.4289-.1468-.0813h.3984l2.789 2.0918h.7969L7.0249-.0813v.2517a.333.333 0 0 1-.1333.2667L4.236 2.4289v.8367l2.5265 2.2738c.0923.0831.0335.2363-.0907.2363a.136.136 0 0 1-.0813-.027l-2.753-2.0648h-.7968L-.1469 5.7757v-.4183l2.789-2.0918z" clip-rule="evenodd"/></mask><path fill="#ff2e3b" fill-rule="evenodd" d="M2.6422 2.4289-.1468-.0813h.3984l2.789 2.0918h.7969L7.0249-.0813v.2517a.333.333 0 0 1-.1333.2667L4.236 2.4289v.8367l2.5265 2.2738c.0923.0831.0335.2363-.0907.2363a.136.136 0 0 1-.0813-.027l-2.753-2.0648h-.7968L-.1469 5.7757v-.4183l2.789-2.0918z" clip-rule="evenodd"/><path stroke="#fff" d="M2.6422 2.4289-.1468-.0813h.3984l2.789 2.0918h.7969L7.0249-.0813v.2517a.333.333 0 0 1-.1333.2667L4.236 2.4289v.8367l2.5265 2.2738c.0923.0831.0335.2363-.0907.2363a.136.136 0 0 1-.0813-.027l-2.753-2.0648h-.7968L-.1469 5.7757v-.4183l2.789-2.0918z" clip-rule="evenodd" mask="url(#d)"/><path fill="#fff" fill-rule="evenodd" d="M-1.046 2.0455v1.6051h3.721V5.8a.3.3 0 0 0 .3.3h.9287a.3.3 0 0 0 .3-.3V3.6506h2.8538a.3.3 0 0 0 .3-.3V2.3455a.3.3 0 0 0-.3-.3H4.2038v-3.0523H2.6751v3.0523z" clip-rule="evenodd"/><path fill="url(#e)" fill-rule="evenodd" d="M-.1469 2.4289h3.1875V-.0813h.7969V2.429h3.1874v.8367H3.8376v2.5101h-.7969V3.2656H-.1469z" clip-rule="evenodd"/></g></g><g clip-path="url(#f)"><path fill="#008339" fill-rule="evenodd" d="M9.9048 6V4.533c0-.7363.5969-1.333 1.3333-1.333h1.1429c.7364 0 1.3333.5967 1.3333 1.333V6c0 2-1.9048 2.8-1.9048 2.8S9.9048 8 9.9048 6" clip-rule="evenodd"/><mask id="g" width="5" height="6" x="9" y="3" maskUnits="userSpaceOnUse" style="mask-type:luminance"><path fill="#fff" fill-rule="evenodd" d="M9.9048 6V4.533c0-.7363.5969-1.333 1.3333-1.333h1.1429c.7364 0 1.3333.5967 1.3333 1.333V6c0 2-1.9048 2.8-1.9048 2.8S9.9048 8 9.9048 6" clip-rule="evenodd"/></mask><g mask="url(#g)"><path fill="#ffd033" d="M11.0477 6.3995c.2104 0 .3809.1796.3809.4004 0 .221-.1705.4004-.3809.4004s-.3808-.1795-.3808-.4004.1705-.4004.3808-.4004m1.5235 0c.2103 0 .3808.1795.3808.4004 0 .221-.1704.4004-.3808.4004-.2103-.0002-.3809-.1796-.3809-.4004s.1706-.4002.3809-.4004m-1.5235-.7998c.2104 0 .3809.1795.3809.4004-.0001.2209-.1705.3994-.3809.3994-.2103 0-.3808-.1785-.3808-.3994s.1704-.4004.3808-.4004m1.5235 0c.2104 0 .3808.1795.3808.4004s-.1705.3994-.3808.3994c-.2102-.0001-.3808-.1786-.3809-.3994s.1706-.4002.3809-.4004M11.0477 4.8c.2104 0 .3809.1795.3809.4004-.0002.2208-.1706.3994-.3809.3994s-.3807-.1786-.3808-.3994c0-.2209.1704-.4004.3808-.4004m1.5235 0c.2104 0 .3808.1795.3808.4004-.0001.2208-.1705.3994-.3808.3994-.2102-.0002-.3807-.1787-.3809-.3994 0-.2208.1706-.4002.3809-.4004m-1.5235-.7998c.2103 0 .3807.1787.3809.3994 0 .221-.1705.4004-.3809.4004s-.3808-.1795-.3808-.4004c.0002-.2207.1706-.3994.3808-.3994m1.5235 0c.2102 0 .3806.1787.3808.3994 0 .221-.1704.4004-.3808.4004-.2103-.0002-.3809-.1796-.3809-.4004.0002-.2205.1708-.3992.3809-.3994"/></g></g><path fill="#ffd033" d="M9.5238 8c0 .763 1.0407 1.2 2.2857 1.2s2.2857-.437 2.2857-1.2c0-.221-.1705-.4-.3809-.4s-.381.179-.381.4c0 .0076-.0923.0993-.3184.1943-.3069.1289-.7393.2057-1.2054.2057s-.8985-.0768-1.2054-.2057c-.2261-.095-.3184-.1867-.3184-.1943 0-.221-.1705-.4-.381-.4-.2103 0-.3809.179-.3809.4"/></g><defs><clipPath id="a"><path fill="#fff" d="M0 0h16v12H0z"/></clipPath><clipPath id="f"><path fill="#fff" d="M9.9048 3.2h4v6h-4z"/></clipPath><linearGradient id="e" x1="0" x2="0" y1="0" y2="6" gradientUnits="userSpaceOnUse"><stop stop-color="#ff2e3b"/><stop offset="1" stop-color="#fc0d1b"/></linearGradient></defs></svg>
